web/static/images/badges/plastic.svg

<?xml version="1.0" encoding="UTF-8" standalone="no"?>
<!-- Created with Inkscape (http://www.inkscape.org/) -->

<svg
   xmlns:dc="http://purl.org/dc/elements/1.1/"
   xmlns:cc="http://creativecommons.org/ns#"
   xmlns:rdf="http://www.w3.org/1999/02/22-rdf-syntax-ns#"
   xmlns:svg="http://www.w3.org/2000/svg"
   xmlns="http://www.w3.org/2000/svg"
   xmlns:sodipodi="http://sodipodi.sourceforge.net/DTD/sodipodi-0.dtd"
   xmlns:inkscape="http://www.inkscape.org/namespaces/inkscape"
   width="207.3026mm"
   height="207.30208mm"
   viewBox="0 0 207.3026 207.30208"
   version="1.1"
   id="svg5"
   inkscape:version="0.92.5 (2060ec1f9f, 2020-04-08)"
   sodipodi:docname="plastic.svg">
  <metadata
     id="metadata30">
    <rdf:RDF>
      <cc:Work
         rdf:about="">
        <dc:format>image/svg+xml</dc:format>
        <dc:type
           rdf:resource="http://purl.org/dc/dcmitype/StillImage" />
        <dc:title></dc:title>
      </cc:Work>
    </rdf:RDF>
  </metadata>
  <sodipodi:namedview
     id="namedview7"
     pagecolor="#505050"
     bordercolor="#eeeeee"
     borderopacity="1"
     inkscape:pageshadow="0"
     inkscape:pageopacity="0"
     inkscape:pagecheckerboard="0"
     inkscape:document-units="mm"
     showgrid="false"
     inkscape:zoom="0.35829459"
     inkscape:cx="-375.38269"
     inkscape:cy="119.79196"
     inkscape:window-width="1712"
     inkscape:window-height="1016"
     inkscape:window-x="208"
     inkscape:window-y="27"
     inkscape:window-maximized="0"
     inkscape:current-layer="g15"
     fit-margin-top="0"
     fit-margin-left="0"
     fit-margin-right="0"
     fit-margin-bottom="0" />
  <defs
     id="defs2">
    <style
       type="text/css"
       id="style9">

    .fil0 {fill:black}

  </style>
  </defs>
  <g
     inkscape:label="Layer 1"
     inkscape:groupmode="layer"
     id="layer1"
     transform="translate(-2.078943,-4.5645794)">
    <g
       style="clip-rule:evenodd;fill-rule:evenodd;image-rendering:optimizeQuality;shape-rendering:geometricPrecision;text-rendering:geometricPrecision"
       id="g30"
       transform="matrix(0.26458333,0,0,0.26458333,-2.2986673,18.186033)">
      <g
         id="g15"
         style="fill:#d81b60;fill-opacity:1"
         transform="matrix(1.6022599,0,0,1.6022599,-270.25732,-187.67419)">
        <path
           id="path13"
           transform="matrix(0.62411848,0,0,0.62411848,174.09485,74.232387)"
           style="fill:#1e88e5;fill-opacity:1;stroke-width:1.60225999"
           d="m 398.80859,17.251953 -46.46484,56.078125 -68.89648,-38.453125 -30.44336,73.703127 -83.31836,-17.625002 -4.80664,73.705082 -78.509769,9.61328 17.624999,76.9082 -76.908202,36.85156 40.054687,62.48828 -59.2832031,52.875 60.8867191,51.27149 -41.658203,75.30664 68.896484,27.23828 -16.023438,76.9082 78.511716,6.41016 11.21485,84.91992 70.5,-19.22851 32.04492,72.10156 68.89844,-41.6582 57.67968,64.08984 48.06836,-57.67969 67.29493,40.05664 32.04492,-73.70508 83.31836,16.02344 4.80664,-73.70508 78.50976,-8.00976 -19.22656,-78.51172 78.51172,-35.25 -40.05664,-62.48828 59.2832,-52.875 -60.88672,-52.87305 41.66016,-73.70508 -68.89844,-27.23828 16.02344,-78.50976 -80.11328,-6.41016 -9.61328,-84.919922 -72.10157,19.228512 -32.04492,-72.101559 -67.29492,41.658203 z m -6.27734,195.757817 a 77.810563,77.810563 0 0 1 77.81055,77.81054 77.810563,77.810563 0 0 1 -77.81055,77.81055 H 236.9082 a 19.452641,19.452641 0 0 1 -19.45117,-19.45313 19.452641,19.452641 0 0 1 19.45117,-19.45312 h 155.62305 a 38.905285,38.905285 0 0 0 38.9043,-38.9043 38.905285,38.905285 0 0 0 -38.9043,-38.90625 c -10.69894,0 -20.42672,4.28074 -27.42969,11.47852 -7.58657,7.97564 -20.03656,7.97564 -27.62304,0 -7.58658,-7.58598 -7.58658,-20.03634 0,-27.62305 14.20039,-14.0059 33.65485,-22.75976 55.05273,-22.75976 z m 136.16797,116.71289 a 58.357928,58.357928 0 0 1 58.35742,58.35742 58.357928,58.357928 0 0 1 -58.35742,58.35937 H 256.36133 A 19.452641,19.452641 0 0 1 236.9082,426.98633 19.452641,19.452641 0 0 1 256.36133,407.5332 h 272.33789 v 0.004 a 19.452641,19.452641 0 0 0 19.45312,-19.45313 19.452641,19.452641 0 0 0 -19.45312,-19.45312 c -5.44653,0 -10.31103,2.13903 -13.8125,5.63867 -7.58657,7.58668 -19.84117,7.58668 -27.42774,0 -7.39203,-7.58671 -7.39203,-19.84176 0,-27.42773 10.50445,-10.50476 25.09451,-17.11914 41.24024,-17.11914 z M 236.9082,485.34375 h 272.33789 a 58.357928,58.357928 0 0 1 58.35743,58.35937 58.357928,58.357928 0 0 1 -58.35743,58.35743 c -16.14565,0 -30.73583,-6.61799 -41.24023,-17.11914 -7.392,-7.58669 -7.392,-19.84102 0,-27.42774 7.58646,-7.58596 19.84323,-7.58596 27.42969,0 3.50184,3.49966 8.36383,5.63867 13.81054,5.63867 a 19.452641,19.452641 0 0 0 19.45313,-19.45312 19.452641,19.452641 0 0 0 -19.45313,-19.45117 v 0.002 H 236.9082 A 19.452641,19.452641 0 0 1 217.45703,504.79693 19.452641,19.452641 0 0 1 236.9082,485.3438 Z m 193.58789,303.00586 c -0.006,0.005 -0.0134,0.0104 -0.0195,0.0156 0.0214,-0.005 0.0434,-0.008 0.0645,-0.0137 -0.015,-4e-4 -0.0299,-0.002 -0.0449,-0.002 z"
           inkscape:connector-curvature="0" />
      </g>
    </g>
  </g>
</svg>

<?xml version="1.0" encoding="UTF-8" standalone="no"?>
<!-- Created with Inkscape (http://www.inkscape.org/) -->

<svg
   width="210mm"
   height="297mm"
   viewBox="0 0 210 297"
   version="1.1"
   id="svg5"
   inkscape:version="1.1 (c4e8f9e, 2021-05-24)"
   sodipodi:docname="plastics-badge.svg"
   xmlns:inkscape="http://www.inkscape.org/namespaces/inkscape"
   xmlns:sodipodi="http://sodipodi.sourceforge.net/DTD/sodipodi-0.dtd"
   xmlns="http://www.w3.org/2000/svg"
   xmlns:svg="http://www.w3.org/2000/svg">
  <sodipodi:namedview
     id="namedview7"
     pagecolor="#505050"
     bordercolor="#eeeeee"
     borderopacity="1"
     inkscape:pageshadow="0"
     inkscape:pageopacity="0"
     inkscape:pagecheckerboard="0"
     inkscape:document-units="mm"
     showgrid="false"
     inkscape:zoom="0.50670507"
     inkscape:cx="298.99049"
     inkscape:cy="359.1833"
     inkscape:window-width="1712"
     inkscape:window-height="1110"
     inkscape:window-x="632"
     inkscape:window-y="216"
     inkscape:window-maximized="0"
     inkscape:current-layer="layer1" />
  <defs
     id="defs2">
    <style
       type="text/css"
       id="style9">

    .fil0 {fill:black}

  </style>
  </defs>
  <g
     inkscape:label="Layer 1"
     inkscape:groupmode="layer"
     id="layer1">
    <g
       style="clip-rule:evenodd;fill-rule:evenodd;image-rendering:optimizeQuality;shape-rendering:geometricPrecision;text-rendering:geometricPrecision"
       id="g30"
       transform="matrix(0.26458333,0,0,0.26458333,-2.2986673,18.186033)">
      <g
         id="g15"
         style="fill:#d81b60;fill-opacity:1"
         transform="matrix(1.6022599,0,0,1.6022599,-270.25732,-187.67419)">
        <path
           id="path13"
           style="fill:#1e88e5;fill-opacity:1;stroke-width:1.60226"
           class="fil0"
           d="M 398.80859 17.251953 L 352.34375 73.330078 L 283.44727 34.876953 L 253.00391 108.58008 L 169.68555 90.955078 L 164.87891 164.66016 L 86.369141 174.27344 L 103.99414 251.18164 L 27.085938 288.0332 L 67.140625 350.52148 L 7.8574219 403.39648 L 68.744141 454.66797 L 27.085938 529.97461 L 95.982422 557.21289 L 79.958984 634.12109 L 158.4707 640.53125 L 169.68555 725.45117 L 240.18555 706.22266 L 272.23047 778.32422 L 341.12891 736.66602 L 398.80859 800.75586 L 446.87695 743.07617 L 514.17188 783.13281 L 546.2168 709.42773 L 629.53516 725.45117 L 634.3418 651.74609 L 712.85156 643.73633 L 693.625 565.22461 L 772.13672 529.97461 L 732.08008 467.48633 L 791.36328 414.61133 L 730.47656 361.73828 L 772.13672 288.0332 L 703.23828 260.79492 L 719.26172 182.28516 L 639.14844 175.875 L 629.53516 90.955078 L 557.43359 110.18359 L 525.38867 38.082031 L 458.09375 79.740234 L 398.80859 17.251953 z M 392.53125 213.00977 A 77.810563 77.810563 0 0 1 470.3418 290.82031 A 77.810563 77.810563 0 0 1 392.53125 368.63086 L 236.9082 368.63086 A 19.452641 19.452641 0 0 1 217.45703 349.17773 A 19.452641 19.452641 0 0 1 236.9082 329.72461 L 392.53125 329.72461 A 38.905285 38.905285 0 0 0 431.43555 290.82031 A 38.905285 38.905285 0 0 0 392.53125 251.91406 C 381.83231 251.91406 372.10453 256.1948 365.10156 263.39258 C 357.51499 271.36822 345.065 271.36822 337.47852 263.39258 C 329.89194 255.8066 329.89194 243.35624 337.47852 235.76953 C 351.67891 221.76363 371.13337 213.00977 392.53125 213.00977 z M 528.69922 329.72266 A 58.357928 58.357928 0 0 1 587.05664 388.08008 A 58.357928 58.357928 0 0 1 528.69922 446.43945 L 256.36133 446.43945 A 19.452641 19.452641 0 0 1 236.9082 426.98633 A 19.452641 19.452641 0 0 1 256.36133 407.5332 L 528.69922 407.5332 L 528.69922 407.53711 A 19.452641 19.452641 0 0 0 548.15234 388.08398 A 19.452641 19.452641 0 0 0 528.69922 368.63086 C 523.25269 368.63086 518.38819 370.76989 514.88672 374.26953 C 507.30015 381.85621 495.04555 381.85621 487.45898 374.26953 C 480.06695 366.68282 480.06695 354.42777 487.45898 346.8418 C 497.96343 336.33704 512.55349 329.72266 528.69922 329.72266 z M 236.9082 485.34375 L 509.24609 485.34375 A 58.357928 58.357928 0 0 1 567.60352 543.70312 A 58.357928 58.357928 0 0 1 509.24609 602.06055 C 493.10044 602.06055 478.51026 595.44256 468.00586 584.94141 C 460.61386 577.35472 460.61386 565.10039 468.00586 557.51367 C 475.59232 549.92771 487.84909 549.92771 495.43555 557.51367 C 498.93739 561.01333 503.79938 563.15234 509.24609 563.15234 A 19.452641 19.452641 0 0 0 528.69922 543.69922 A 19.452641 19.452641 0 0 0 509.24609 524.24805 L 509.24609 524.25 L 236.9082 524.25 A 19.452641 19.452641 0 0 1 217.45703 504.79688 A 19.452641 19.452641 0 0 1 236.9082 485.34375 z M 240.18555 730.25781 L 222.56055 735.06445 L 200.12891 1101.9824 L 405.21875 925.73242 L 621.52344 1101.9824 L 579.86523 738.26953 L 546.2168 731.85938 L 514.17188 805.56445 L 446.87695 765.50781 L 398.80859 823.1875 L 341.12891 760.70117 L 272.23047 802.35938 L 240.18555 730.25781 z "
           transform="matrix(0.62411848,0,0,0.62411848,174.09485,74.232387)" />
      </g>
    </g>
  </g>
</svg>
